packages/sources/assets/src/assets/flag-ug.svg

<svg width="28" height="20" viewBox="0 0 28 20" fill="none" xmlns="http://www.w3.org/2000/svg">
<rect width="28" height="20" rx="2" fill="white"/>
<mask id="mask0_503_2490" style="mask-type:alpha" maskUnits="userSpaceOnUse" x="0" y="0" width="28" height="20">
<rect width="28" height="20" rx="2" fill="white"/>
</mask>
<g mask="url(#mask0_503_2490)">
<path fill-rule="evenodd" clip-rule="evenodd" d="M0 2.66667H28V0H0V2.66667Z" fill="#262626"/>
<path fill-rule="evenodd" clip-rule="evenodd" d="M0 13.3333H28V10.6667H0V13.3333Z" fill="#262626"/>
<path fill-rule="evenodd" clip-rule="evenodd" d="M0 10.6667H28V6.66667H0V10.6667Z" fill="#ED1623"/>
<path fill-rule="evenodd" clip-rule="evenodd" d="M0 6.66667H28V2.66667H0V6.66667Z" fill="#FEE044"/>
<path fill-rule="evenodd" clip-rule="evenodd" d="M0 20H28V17.3333H0V20Z" fill="#ED1623"/>
<path fill-rule="evenodd" clip-rule="evenodd" d="M0 17.3333H28V13.3333H0V17.3333Z" fill="#FEE044"/>
<path fill-rule="evenodd" clip-rule="evenodd" d="M14 14.6667C16.5773 14.6667 18.6667 12.5773 18.6667 9.99999C18.6667 7.42267 16.5773 5.33333 14 5.33333C11.4227 5.33333 9.33334 7.42267 9.33334 9.99999C9.33334 12.5773 11.4227 14.6667 14 14.6667Z" fill="white"/>
<path fill-rule="evenodd" clip-rule="evenodd" d="M12.9024 7.56904C12.7722 7.43887 12.7722 7.22781 12.9024 7.09764L13.3142 6.68578C13.3269 6.67306 13.3383 6.65969 13.3492 6.64536C13.3842 6.59921 13.4735 6.48655 13.5778 6.39168C13.7545 6.23097 14.2579 6.21411 14.4323 6.37733C14.4797 6.42164 14.5229 6.47099 14.5591 6.51619C14.631 6.60617 14.6353 6.72931 14.5838 6.83233L14.0352 7.92962C14.012 7.97591 14 8.02695 14 8.07869V8.46066C14 8.58692 14.0713 8.70234 14.1843 8.7588L15.285 9.30915C15.317 9.32517 15.3462 9.34625 15.3716 9.37159L16.4968 10.4968C16.5982 10.5982 16.6234 10.7532 16.5592 10.8816L16.2068 11.5864C16.1051 11.7899 15.8339 11.8339 15.673 11.673L15.569 11.569C15.4389 11.4389 15.2278 11.4389 15.0976 11.569L14.7643 11.9024C14.7018 11.9649 14.6667 12.0497 14.6667 12.1381V12.5286C14.6667 12.617 14.7018 12.7018 14.7643 12.7643C14.9743 12.9743 14.8256 13.3333 14.5286 13.3333H14.1381C13.8411 13.3333 13.6924 12.9743 13.9024 12.7643C13.9649 12.7018 14 12.617 14 12.5286V12.3333C14 12.1492 13.8508 12 13.6667 12H13.4714C13.383 12 13.2982 12.0351 13.2357 12.0976L12.9024 12.431C12.7722 12.5611 12.5611 12.5611 12.431 12.431L12.2357 12.2357C12.1055 12.1055 12.1055 11.8945 12.2357 11.7643L12.569 11.431C12.6315 11.3685 12.7163 11.3333 12.8047 11.3333H13.1953C13.4922 11.3333 13.641 10.9743 13.431 10.7643L12.2357 9.56904C12.1055 9.43887 12.1055 9.22781 12.2357 9.09764L13.0976 8.23571C13.2278 8.10553 13.2278 7.89448 13.0976 7.7643L12.9024 7.56904Z" fill="#262626"/>
</g>
</svg>

<svg width="28" height="20" fill="none" xmlns="http://www.w3.org/2000/svg"><rect width="28" height="20" rx="2" fill="#fff"/><mask id="a" style="mask-type:alpha" maskUnits="userSpaceOnUse" x="0" y="0" width="28" height="20"><rect width="28" height="20" rx="2" fill="#fff"/></mask><g mask="url(#a)" fill-rule="evenodd" clip-rule="evenodd"><path d="M0 2.667h28V0H0v2.667Zm0 10.666h28v-2.666H0v2.666Z" fill="#262626"/><path d="M0 10.667h28v-4H0v4Z" fill="#ED1623"/><path d="M0 6.667h28v-4H0v4Z" fill="#FEE044"/><path d="M0 20h28v-2.667H0V20Z" fill="#ED1623"/><path d="M0 17.333h28v-4H0v4Z" fill="#FEE044"/><path d="M14 14.667a4.667 4.667 0 1 0 0-9.334 4.667 4.667 0 0 0 0 9.334Z" fill="#fff"/><path d="M12.902 7.569a.333.333 0 0 1 0-.471l.412-.412a.395.395 0 0 0 .035-.04c.035-.047.124-.16.229-.254.177-.161.68-.178.854-.015.048.045.09.094.127.14.072.09.076.212.025.315l-.549 1.098a.333.333 0 0 0-.035.149v.382c0 .126.071.241.184.298l1.101.55a.335.335 0 0 1 .087.063l1.125 1.125a.333.333 0 0 1 .062.385l-.352.704a.333.333 0 0 1-.534.087l-.104-.104a.333.333 0 0 0-.471 0l-.334.333a.333.333 0 0 0-.097.236v.39c0 .089.035.174.097.236.21.21.062.57-.235.57h-.39a.333.333 0 0 1-.237-.57.333.333 0 0 0 .098-.235v-.196a.333.333 0 0 0-.333-.333h-.196a.333.333 0 0 0-.235.098l-.334.333a.333.333 0 0 1-.471 0l-.195-.195a.333.333 0 0 1 0-.472l.333-.333a.333.333 0 0 1 .236-.098h.39a.333.333 0 0 0 .236-.569L12.236 9.57a.333.333 0 0 1 0-.471l.862-.862a.333.333 0 0 0 0-.472l-.196-.195Z" fill="#262626"/></g></svg>
